symbols/web/pin_drop/materialsymbolsoutlined/pin_drop_wght700_24px.svg

<svg xmlns="http://www.w3.org/2000/svg" height="24" width="24"><path d="M12 15.15q2.15-1.8 3.288-3.475 1.137-1.675 1.137-3.1 0-1.25-.45-2.125T14.85 5.037q-.675-.537-1.437-.787Q12.65 4 12 4q-.625 0-1.4.25-.775.25-1.45.787-.675.538-1.125 1.413-.45.875-.45 2.125 0 1.425 1.138 3.1Q9.85 13.35 12 15.15Zm0 3.975Q8.2 16.3 6.312 13.688q-1.887-2.613-1.887-5.113 0-1.9.688-3.35Q5.8 3.775 6.888 2.8q1.087-.975 2.437-1.463Q10.675.85 12 .85q1.325 0 2.675.487 1.35.488 2.438 1.463 1.087.975 1.775 2.425.687 1.45.687 3.35 0 2.5-1.887 5.113Q15.8 16.3 12 19.125ZM12 11q1.075 0 1.825-.762.75-.763.75-1.813 0-1.075-.75-1.825T12 5.85q-1.05 0-1.812.75-.763.75-.763 1.825 0 1.05.763 1.813Q10.95 11 12 11ZM4.425 23.15V20h15.15v3.15ZM12 8.575Z"/></svg>

<svg xmlns="http://www.w3.org/2000/svg" height="24" width="24"><path d="M12 15.15Q14.15 13.35 15.288 11.675Q16.425 10 16.425 8.575Q16.425 7.325 15.975 6.45Q15.525 5.575 14.85 5.037Q14.175 4.5 13.413 4.25Q12.65 4 12 4Q11.375 4 10.6 4.25Q9.825 4.5 9.15 5.037Q8.475 5.575 8.025 6.45Q7.575 7.325 7.575 8.575Q7.575 10 8.713 11.675Q9.85 13.35 12 15.15ZM12 19.125Q8.2 16.3 6.312 13.688Q4.425 11.075 4.425 8.575Q4.425 6.675 5.113 5.225Q5.8 3.775 6.888 2.8Q7.975 1.825 9.325 1.337Q10.675 0.85 12 0.85Q13.325 0.85 14.675 1.337Q16.025 1.825 17.113 2.8Q18.2 3.775 18.888 5.225Q19.575 6.675 19.575 8.575Q19.575 11.075 17.688 13.688Q15.8 16.3 12 19.125ZM12 11Q13.075 11 13.825 10.238Q14.575 9.475 14.575 8.425Q14.575 7.35 13.825 6.6Q13.075 5.85 12 5.85Q10.95 5.85 10.188 6.6Q9.425 7.35 9.425 8.425Q9.425 9.475 10.188 10.238Q10.95 11 12 11ZM4.425 23.15V20H19.575V23.15ZM12 8.575Q12 8.575 12 8.575Q12 8.575 12 8.575Q12 8.575 12 8.575Q12 8.575 12 8.575Q12 8.575 12 8.575Q12 8.575 12 8.575Q12 8.575 12 8.575Q12 8.575 12 8.575Q12 8.575 12 8.575Q12 8.575 12 8.575Q12 8.575 12 8.575Q12 8.575 12 8.575Z"/></svg>
